X: 1
T:The Mason's Cap -- Reel
M:2/4
L:1/16
R:reel
B:Ryan's Mammoth Collection
Z:Contributed by Ray Davies,  ray:davies99.freeserve.co.uk
K:A
ue|c>AA>B A>BA>F|EFAB {AB}c2(BA)|d>BB>c B>cB>A|Bcde {g}f2(ed)|
c>AA>B A>BA>F|EFAB {AB}c2BA|Bcde fefa|(3.A.A.A(cB) A2 A::
e|(cA)(eA) (fA)(eA)|.c.A.e.A .f.e.d.c|(dB)(fB) (aB)(fB)|\
(dB)(fB) .f2(ed)|
(cA)(eA) (fA)(eA)|(cA)(eA) .f.e.d.c|.B.c.d.e .f.e.f.a|\
(3.A.A.A(cB) A2 A:|
